build-source/logos/franceinter.default.svg

<?xml version="1.0" encoding="UTF-8" standalone="no"?>
<!-- Created with Inkscape (http://www.inkscape.org/) -->
<svg
   xmlns:svg="http://www.w3.org/2000/svg"
   xmlns="http://www.w3.org/2000/svg"
   version="1.0"
   width="602.36218"
   height="602.36218"
   id="svg2407">
  <defs
     id="defs2409" />
  <g
     id="g6753">
    <path
       d="M 17.716527,584.6513 L 493.20539,584.6513 L 493.20539,109.16248 L 17.716527,109.16248 L 17.716527,584.6513 z"
       id="path5844"
       style="fill:#000000;fill-opacity:1;fill-rule:nonzero;stroke:none" />
    <path
       d="M 109.18842,462.06895 L 88.069273,463.78131 L 88.64006,505.44881 C 88.64006,505.44881 113.78899,506.78432 119.74799,507.16117 C 125.68429,507.52647 131.83723,507.6863 133.73228,514.8668 C 135.78724,522.65223 126.84856,528.28028 123.7435,528.28031 C 133.12713,528.28031 130.96959,528.28029 138.01319,528.28031 C 143.74391,527.22994 150.2508,520.28929 149.42894,510.01511 C 148.34446,496.43024 137.97892,493.17685 126.88283,493.17687 L 130.38998,470.98459 L 109.18842,462.06895 z M 59.529891,501.45329 C 55.728326,506.05386 51.927,513.26849 54.107408,521.14547 C 60.625803,543.15516 95.580838,552.81276 110.32999,553.39497 L 108.61763,527.70952 C 108.61764,527.70953 84.758704,530.70045 72.658007,518.00613 C 67.532334,512.65202 68.514207,507.19553 72.372613,502.30947 C 67.852075,502.11539 62.566372,501.57887 59.529891,501.45329 z"
       id="path5846"
       style="fill:#ffffff;fill-opacity:1;fill-rule:nonzero;stroke:none" />
    <path
       d="M 109.15683,493.1997 L 584.64566,493.1997 L 584.64566,17.71088 L 109.15683,17.71088 L 109.15683,493.1997 z"
       id="path5850"
       style="fill:#ed1941;fill-opacity:1;fill-rule:nonzero;stroke:none" />
    <path
       d="M 386.5,280.8125 C 386.231,280.82591 385.95364,280.84012 385.6875,280.875 C 382.4939,281.29353 379.31208,282.97411 377.5,285.6875 C 375.73586,288.39124 375.90625,292.13712 375.90625,295.25 L 371.6875,295.25 L 371.6875,303.25 L 375.90625,303.25 L 375.90625,330.40625 L 386.28125,330.40625 L 386.28125,303.25 L 392.6875,303.25 L 392.6875,295.25 L 386.28125,295.25 L 386.28125,294.46875 C 386.28126,291.41985 386.32258,288.84525 390.09375,289.0625 L 393.6875,289.28125 L 393.6875,281.28125 L 388.875,280.875 C 388.10199,280.80907 387.30699,280.77228 386.5,280.8125 z M 412.625,293.40625 C 412.35844,293.40128 412.09181,293.42612 411.84375,293.46875 C 408.37082,294.06561 406.59023,297.70673 405.65625,301.0625 L 405.46875,301.0625 L 405.46875,294.28125 L 395.6875,294.28125 L 395.6875,330.40625 L 406.25,330.40625 L 406.25,316.625 C 406.25,310.22679 407.27939,303.64064 415.25,304.0625 L 415.25,293.65625 L 413.4375,293.46875 C 413.15386,293.44599 412.89156,293.41122 412.625,293.40625 z M 435.03125,293.46875 C 427.41219,293.46874 418.72368,296.11245 417.65625,304.84375 L 427.625,305.84375 C 427.625,302.30907 430.48236,300.46875 433.8125,300.46875 C 435.3785,300.46874 437.10443,301.04195 438.03125,302.25 C 439.09229,303.58588 439.03125,305.4965 439.03125,307.0625 L 439.03125,307.84375 C 434.62728,308.2784 428.96648,308.46519 424.84375,310.03125 C 420.08184,311.80817 416.65625,315.49379 416.65625,320.84375 C 416.65624,327.66382 421.65221,331.03125 428.03125,331.03125 C 433.44514,331.03126 436.62724,329.05034 439.625,324.8125 C 439.5419,326.64055 439.60939,328.55901 440.03125,330.40625 L 450.40625,330.40625 C 449.84377,328.6421 449.59375,326.88488 449.59375,325.03125 L 449.59375,308.0625 C 449.59376,303.72885 450.10712,299.85365 446.40625,296.875 C 443.49159,294.45249 438.70655,293.46869 435.03125,293.46875 z M 475.5625,293.46875 C 470.30202,293.46874 467.32244,295.86018 465.1875,300.46875 L 465.1875,294.28125 L 455.1875,294.28125 L 455.1875,330.40625 L 465.59375,330.40625 L 465.59375,311.03125 C 465.59375,308.77493 465.72021,306.53337 466.78125,304.46875 C 467.63135,302.84524 469.34026,301.84382 471.1875,301.84375 C 476.44157,301.84376 475.96868,307.33032 475.96875,311.03125 L 475.96875,330.40625 L 486.5625,330.40625 L 486.5625,308.0625 C 486.5625,304.80268 486.55036,300.15325 484.5625,297.46875 C 482.4404,294.56048 478.97573,293.46875 475.5625,293.46875 z M 508.71875,293.46875 C 497.3541,293.46874 490.56244,301.58568 490.5625,312.65625 C 490.56251,323.3242 496.98831,331.03125 507.9375,331.03125 C 516.73905,331.03126 523.65628,325.79236 524.5,316.84375 L 514.53125,316.25 C 514.16691,319.58652 512.23217,322.43744 508.53125,322.4375 C 502.57407,322.43749 502.53125,316.24139 502.53125,311.84375 C 502.53125,307.22885 503.19126,301.46882 508.9375,301.46875 C 512.70869,301.46875 514.53119,304.80913 514.53125,308.0625 L 524.5,307.4375 C 523.79687,298.98751 517.10482,293.46882 508.71875,293.46875 z M 545.09375,293.46875 C 533.85691,293.46874 527.5,302.17586 527.5,312.84375 C 527.49999,323.53727 534.47907,331.03125 545.28125,331.03125 C 557.48965,331.03126 561.87494,320.38275 561.875,318.625 L 552.0625,317.84375 C 552.06251,321.16749 548.88341,323.62506 545.6875,323.625 C 541.1365,323.625 538.68756,320.11343 538.6875,315.84375 L 538.875,314.03125 L 562.0625,314.03125 C 562.1328,309.13512 561.22865,303.96014 558.25,299.84375 C 555.26504,295.71464 550.14329,293.46882 545.09375,293.46875 z M 544.25,300.40625 C 544.63317,300.39199 545.03553,300.46875 545.46875,300.46875 C 550.00055,300.46874 551.26421,303.93841 551.46875,307.84375 L 538.6875,307.84375 C 539.00071,304.23634 540.43409,301.17843 543.875,300.46875 C 543.99788,300.44341 544.12228,300.411 544.25,300.40625 z M 132,306.65625 L 132,340 L 166.5625,340 L 166.5625,306.65625 L 132,306.65625 z M 439.03125,313.03125 L 439.03125,314.4375 C 439.03125,316.98144 439.12068,319.16201 437.625,321.4375 C 436.42332,323.28473 434.56598,324.43756 432.4375,324.4375 C 429.51642,324.4375 427.84375,322.47575 427.84375,319.625 C 427.84376,314.38369 435.05553,313.45324 439.03125,313.03125 z M 346.125,313.25 L 315.96875,315.625 L 312.96875,350.59375 L 292,350.59375 L 292,378.15625 L 311.59375,378.15625 L 311.59375,430.90625 C 311.59376,442.68638 311.51738,456.84119 321.15625,464.84375 C 328.92872,471.19723 342.04935,472.62494 351.9375,472.625 C 358.28458,472.62501 364.72253,471.6087 371.3125,470.65625 L 373.5,470.03125 L 373.5,444.0625 L 362.71875,444.46875 C 346.01693,445.19104 346.125,439.55776 346.125,425.6875 L 346.125,378.15625 L 371.6875,378.15625 L 371.6875,350.59375 L 346.125,350.59375 L 346.125,313.25 z M 554.53125,348.34375 C 554.10971,348.34865 553.72116,348.3889 553.28125,348.40625 C 540.08405,348.92642 533.61426,361.24943 530.3125,373.15625 L 529.6875,373.15625 L 529.6875,350.78125 L 497.53125,350.78125 L 497.53125,470.4375 L 532.09375,470.4375 L 532.09375,424.6875 C 532.09374,403.51139 535.53423,382.1563 561.875,383.5625 L 561.875,349 L 555.875,348.40625 C 555.4044,348.36931 554.95279,348.33885 554.53125,348.34375 z M 247.65625,348.40625 C 230.25771,348.40625 220.36909,355.69236 213.3125,370.96875 L 212.90625,370.96875 L 212.90625,350.78125 L 180.15625,350.78125 L 180.15625,470.4375 L 214.90625,470.4375 L 214.90625,406.125 C 214.90625,398.6146 215.36519,391.76397 218.90625,384.9375 C 221.73144,379.5364 227.35815,375.96881 233.46875,375.96875 C 250.87369,375.96874 249.0625,393.90377 249.0625,406.125 L 249.0625,470.4375 L 283.8125,470.4375 L 283.8125,396.53125 C 283.81249,385.71629 283.80874,370.51667 277.21875,361.59375 C 270.16858,351.9485 258.9634,348.40632 247.65625,348.40625 z M 432.4375,348.40625 C 395.26903,348.40625 374.3125,377.02331 374.3125,412.3125 C 374.31249,447.83825 397.67525,472.625 433.4375,472.625 C 473.89773,472.62501 487.75,437.38054 487.75,431.5 L 455.59375,429.09375 C 455.59375,440.14521 445.02875,448.06244 434.4375,448.0625 C 419.37836,448.06251 411.4375,436.40647 411.4375,422.3125 L 411.65625,416.5 L 488.34375,416.5 C 488.59303,400.27115 486.02523,383.2155 476.15625,369.5625 C 466.28089,355.92236 449.12655,348.40632 432.4375,348.40625 z M 132,350.78125 L 132,470.4375 L 166.5625,470.4375 L 166.5625,350.78125 L 132,350.78125 z M 433.8125,370.96875 C 448.86525,370.96875 453.10301,383.00678 453.8125,395.9375 L 411.4375,395.9375 C 412.61359,382.31014 418.51048,370.96875 433.8125,370.96875 z"
       id="path6605"
       style="fill:#ffffff" />
  </g>
</svg>

<svg xmlns="http://www.w3.org/2000/svg" viewBox="0 0 602.36 602.36"><path d="m17.717 584.65h475.49v-475.49h-475.49v475.49"/><path d="m109.19 462.07l-21.12 1.712.571 41.667c0 0 25.15 1.336 31.11 1.712 5.936.365 12.09.525 13.984 7.706 2.055 7.785-6.884 13.413-9.989 13.414 9.384 0 7.226 0 14.27 0 5.731-1.05 12.238-7.991 11.416-18.265-1.084-13.585-11.45-16.838-22.546-16.838l3.507-22.19-21.2-8.916m-49.659 39.38c-3.802 4.601-7.603 11.815-5.422 19.692 6.518 22.01 41.473 31.667 56.22 32.25l-1.712-25.685c0 0-23.859 2.991-35.96-9.703-5.126-5.354-4.144-10.811-.285-15.697-4.521-.194-9.806-.731-12.843-.856" fill="#fff"/><path d="m109.16 493.2h475.49v-475.49h-475.49v475.49" fill="#ed1941"/><path d="m386.5 280.81c-.269.013-.546.028-.813.063-3.194.419-6.375 2.099-8.188 4.813-1.764 2.704-1.594 6.45-1.594 9.563h-4.219v8h4.219v27.16h10.375v-27.16h6.406v-8h-6.406v-.781c0-3.049.041-5.623 3.813-5.406l3.594.219v-8l-4.813-.406c-.773-.066-1.568-.103-2.375-.063m26.12 12.594c-.267-.005-.533.02-.781.063-3.473.597-5.254 4.238-6.188 7.594h-.188v-6.781h-9.781v36.12h10.563v-13.781c0-6.398 1.029-12.984 9-12.563v-10.406l-1.813-.188c-.284-.023-.546-.058-.813-.063m22.406.063c-7.619 0-16.308 2.644-17.375 11.375l9.969 1c0-3.535 2.857-5.375 6.188-5.375 1.566 0 3.292.573 4.219 1.781 1.061 1.336 1 3.247 1 4.813v.781c-4.404.435-10.06.621-14.188 2.188-4.762 1.777-8.188 5.463-8.188 10.813 0 6.82 4.996 10.188 11.375 10.188 5.414 0 8.596-1.981 11.594-6.219-.083 1.828-.016 3.747.406 5.594h10.375c-.562-1.764-.813-3.521-.813-5.375v-16.969c0-4.334.513-8.209-3.188-11.188-2.915-2.423-7.7-3.406-11.375-3.406m40.531 0c-5.26 0-8.24 2.391-10.375 7v-6.188h-10v36.12h10.406v-19.375c0-2.256.126-4.498 1.188-6.563.85-1.624 2.559-2.625 4.406-2.625 5.254 0 4.781 5.487 4.781 9.188v19.375h10.594v-22.344c0-3.26-.012-7.909-2-10.594-2.122-2.908-5.587-4-9-4m33.16 0c-11.365 0-18.16 8.117-18.16 19.19 0 10.668 6.426 18.375 17.375 18.375 8.802 0 15.719-5.239 16.563-14.188l-9.969-.594c-.364 3.337-2.299 6.187-6 6.188-5.957 0-6-6.196-6-10.594 0-4.615.66-10.375 6.406-10.375 3.771 0 5.594 3.34 5.594 6.594l9.969-.625c-.703-8.45-7.395-13.969-15.781-13.969m36.37 0c-11.237 0-17.594 8.707-17.594 19.375 0 10.694 6.979 18.19 17.781 18.19 12.208 0 16.594-10.649 16.594-12.406l-9.813-.781c0 3.324-3.179 5.781-6.375 5.781-4.551 0-7-3.512-7-7.781l.188-1.813h23.19c.07-4.896-.834-10.07-3.813-14.188-2.985-4.129-8.107-6.375-13.156-6.375m-.844 6.938c.383-.014.786.063 1.219.063 4.532 0 5.795 3.47 6 7.375h-12.781c.313-3.607 1.747-6.665 5.188-7.375.123-.025.247-.058.375-.063m-412.25 6.25v33.34h34.563v-33.34h-34.563m307.03 6.375v1.406c0 2.544.089 4.725-1.406 7-1.202 1.847-3.059 3-5.188 3-2.921 0-4.594-1.962-4.594-4.813 0-5.241 7.212-6.172 11.188-6.594m-92.91.219l-30.16 2.375-3 34.969h-20.969v27.563h19.594v52.75c0 11.78-.076 25.935 9.563 33.938 7.772 6.353 20.893 7.781 30.781 7.781 6.347 0 12.785-1.016 19.375-1.969l2.188-.625v-25.969l-10.781.406c-16.702.722-16.594-4.911-16.594-18.781v-47.531h25.563v-27.563h-25.563v-37.34m208.41 35.09c-.422.005-.81.045-1.25.063-13.197.52-19.667 12.843-22.969 24.75h-.625v-22.375h-32.16v119.66h34.563v-45.75c0-21.18 3.44-42.531 29.781-41.12v-34.563l-6-.594c-.471-.037-.922-.067-1.344-.063m-306.87.063c-17.399 0-27.29 7.286-34.34 22.563h-.406v-20.19h-32.75v119.66h34.75v-64.31c0-7.51.459-14.361 4-21.19 2.825-5.401 8.452-8.969 14.563-8.969 17.405 0 15.594 17.935 15.594 30.16v64.31h34.75v-73.906c0-10.815-.004-26.01-6.594-34.938-7.05-9.645-18.255-13.187-29.563-13.188m184.78 0c-37.17 0-58.12 28.617-58.12 63.906 0 35.526 23.363 60.31 59.12 60.31 40.46 0 54.31-35.24 54.31-41.12l-32.16-2.406c0 11.05-10.565 18.969-21.16 18.969-15.06 0-23-11.656-23-25.75l.219-5.813h76.69c.249-16.229-2.319-33.28-12.188-46.938-9.875-13.64-27.03-21.16-43.719-21.16m-300.44 2.375v119.66h34.563v-119.66h-34.563m301.81 20.19c15.05 0 19.291 12.04 20 24.969h-42.37c1.176-13.627 7.07-24.969 22.375-24.969" fill="#fff"/></svg>
